flaticon/emoticons/geek-1.svg

<svg xmlns="http://www.w3.org/2000/svg" width="32" height="32" viewBox="0 0 24 24">
    <path d="M 17.421875 16.464844 L 9.824219 17.265625 C 9.605469 17.289062 9.445312 17.488281 9.46875 17.707031 C 9.488281 17.910156 9.664062 18.066406 9.867188 18.066406 C 9.878906 18.066406 9.894531 18.0625 9.90625 18.0625 L 11 17.945312 L 11 19.234375 C 11 19.34375 11.046875 19.449219 11.125 19.527344 C 11.199219 19.597656 11.296875 19.636719 11.398438 19.636719 C 11.40625 19.636719 11.414062 19.632812 11.421875 19.632812 L 14.03125 19.488281 L 14.035156 19.488281 L 16.203125 19.367188 C 16.414062 19.355469 16.578125 19.179688 16.578125 18.96875 L 16.578125 17.359375 L 17.507812 17.261719 C 17.726562 17.238281 17.886719 17.042969 17.863281 16.824219 C 17.839844 16.601562 17.640625 16.445312 17.421875 16.464844 Z M 11.800781 17.867188 L 13.609375 17.679688 L 13.609375 18.710938 L 11.800781 18.8125 Z M 15.78125 18.589844 L 14.410156 18.667969 L 14.410156 17.59375 L 15.78125 17.449219 Z M 15.78125 18.589844"/>
    <path d="M 23.917969 10.0625 C 23.757812 9.382812 23.371094 8.796875 22.886719 8.5 C 22.5625 8.300781 22.214844 8.234375 21.882812 8.316406 C 21.808594 8.332031 21.734375 8.363281 21.664062 8.394531 C 19.050781 2.039062 12.332031 1.964844 12.164062 1.964844 C 12.160156 1.964844 12.160156 1.964844 12.160156 1.964844 C 12.132812 1.964844 11.335938 1.96875 10.1875 2.21875 C 10.1875 2.21875 10.183594 2.21875 10.179688 2.21875 C 9.820312 2.300781 9.429688 2.402344 9.015625 2.539062 C 9.003906 2.539062 8.992188 2.535156 8.980469 2.535156 L 8.980469 2.550781 C 6.351562 3.421875 2.894531 5.582031 1.902344 10.957031 C 1.894531 10.992188 1.890625 11.023438 1.886719 11.058594 C 1.785156 11.027344 1.679688 11.007812 1.574219 11.007812 C 0.691406 11.007812 0 11.960938 0 13.179688 C 0 14.394531 0.691406 15.347656 1.574219 15.347656 C 1.738281 15.347656 1.894531 15.308594 2.046875 15.242188 C 2.328125 16.308594 2.792969 17.3125 3.429688 18.191406 C 4.726562 19.980469 7.292969 22.101562 12.15625 22.035156 C 12.230469 22.035156 12.304688 22.035156 12.375 22.035156 C 17.09375 22.035156 19.605469 19.953125 20.882812 18.191406 C 22.035156 16.605469 22.621094 14.613281 22.574219 12.5625 C 22.589844 12.5625 22.601562 12.566406 22.617188 12.566406 C 22.707031 12.566406 22.796875 12.558594 22.886719 12.535156 C 23.742188 12.332031 24.199219 11.246094 23.917969 10.0625 Z M 9.039062 3.339844 C 10.097656 3.402344 10.980469 5.019531 10.980469 6.9375 L 11.78125 6.9375 C 11.78125 5.207031 11.175781 3.742188 10.273438 3.019531 C 11.367188 3.046875 12.582031 3.601562 12.582031 7.234375 L 13.378906 7.234375 C 13.378906 6.386719 13.378906 4.359375 12.359375 3.15625 C 13.410156 3.855469 14.179688 5.621094 14.179688 7.636719 L 14.980469 7.636719 C 14.980469 5.683594 14.367188 3.992188 13.417969 2.996094 C 14.777344 3.503906 15.78125 5.207031 15.78125 7.234375 L 16.578125 7.234375 C 16.578125 5.683594 16.050781 4.296875 15.222656 3.339844 C 15.574219 3.460938 15.9375 3.605469 16.308594 3.78125 C 18.492188 4.816406 20.042969 6.480469 20.949219 8.742188 L 19.171875 10.128906 C 18.816406 8.925781 17.898438 8.046875 16.792969 7.988281 C 16.15625 7.957031 15.539062 8.195312 15.042969 8.664062 C 14.703125 8.988281 14.4375 9.402344 14.265625 9.867188 C 14.070312 9.742188 13.847656 9.667969 13.640625 9.664062 C 13.425781 9.660156 13.210938 9.726562 13.015625 9.847656 C 12.546875 8.601562 11.460938 7.703125 10.167969 7.632812 C 9.332031 7.59375 8.519531 7.894531 7.886719 8.496094 C 7.414062 8.941406 7.078125 9.519531 6.902344 10.160156 L 3.472656 8.488281 C 4.792969 5.429688 7.121094 4.003906 9.039062 3.339844 Z M 15.59375 9.246094 C 15.910156 8.945312 16.285156 8.785156 16.671875 8.785156 C 16.699219 8.785156 16.722656 8.789062 16.75 8.789062 C 17.730469 8.839844 18.53125 9.9375 18.53125 11.234375 C 18.53125 12.527344 17.730469 13.625 16.75 13.675781 C 16.335938 13.699219 15.933594 13.539062 15.59375 13.21875 C 15.101562 12.75 14.820312 12.027344 14.820312 11.230469 C 14.820312 10.4375 15.101562 9.710938 15.59375 9.246094 Z M 12.464844 11.234375 C 12.464844 12.730469 11.4375 13.960938 10.125 14.03125 C 9.511719 14.070312 8.90625 13.835938 8.433594 13.386719 C 7.875 12.855469 7.550781 12.070312 7.550781 11.234375 C 7.550781 10.394531 7.875 9.609375 8.433594 9.078125 C 8.878906 8.65625 9.429688 8.429688 10.007812 8.429688 C 10.046875 8.429688 10.085938 8.429688 10.125 8.433594 C 11.4375 8.503906 12.464844 9.734375 12.464844 11.234375 Z M 1.871094 14.429688 C 1.789062 14.496094 1.6875 14.546875 1.574219 14.546875 C 1.207031 14.546875 0.800781 13.984375 0.800781 13.179688 C 0.800781 12.371094 1.207031 11.808594 1.574219 11.808594 C 1.640625 11.808594 1.710938 11.828125 1.777344 11.863281 C 1.757812 12.078125 1.746094 12.289062 1.738281 12.503906 C 1.738281 12.515625 1.738281 12.53125 1.738281 12.546875 C 1.734375 12.722656 1.734375 12.898438 1.738281 13.074219 C 1.742188 13.128906 1.742188 13.1875 1.746094 13.242188 C 1.753906 13.382812 1.761719 13.523438 1.773438 13.664062 C 1.78125 13.722656 1.785156 13.78125 1.789062 13.839844 C 1.808594 14.015625 1.832031 14.1875 1.859375 14.359375 C 1.863281 14.382812 1.867188 14.40625 1.871094 14.429688 Z M 20.234375 17.722656 C 18.507812 20.101562 15.804688 21.28125 12.160156 21.234375 L 12.152344 21.234375 C 8.515625 21.296875 5.804688 20.101562 4.078125 17.722656 C 3.253906 16.585938 2.746094 15.222656 2.585938 13.777344 C 2.582031 13.746094 2.582031 13.714844 2.578125 13.6875 C 2.558594 13.457031 2.542969 13.226562 2.539062 12.992188 C 2.535156 12.894531 2.539062 12.792969 2.539062 12.695312 C 2.542969 12.53125 2.546875 12.367188 2.558594 12.203125 C 2.566406 12.085938 2.574219 11.96875 2.585938 11.851562 C 2.613281 11.601562 2.640625 11.351562 2.6875 11.101562 C 2.8125 10.425781 2.980469 9.808594 3.179688 9.238281 L 6.761719 10.984375 C 6.757812 11.066406 6.75 11.148438 6.75 11.234375 C 6.75 12.289062 7.164062 13.285156 7.882812 13.96875 C 8.476562 14.53125 9.222656 14.835938 10.003906 14.835938 C 10.058594 14.835938 10.113281 14.835938 10.164062 14.832031 C 11.902344 14.738281 13.265625 13.15625 13.265625 11.234375 C 13.265625 11.078125 13.253906 10.925781 13.234375 10.773438 L 13.265625 10.773438 C 13.265625 10.695312 13.324219 10.625 13.359375 10.589844 C 13.445312 10.503906 13.554688 10.457031 13.621094 10.464844 C 13.769531 10.464844 14.019531 10.652344 14.019531 10.789062 L 14.046875 10.789062 C 14.03125 10.933594 14.019531 11.082031 14.019531 11.234375 C 14.019531 12.246094 14.390625 13.183594 15.042969 13.800781 C 15.507812 14.238281 16.082031 14.480469 16.671875 14.480469 C 16.710938 14.480469 16.753906 14.476562 16.792969 14.476562 C 18.214844 14.398438 19.332031 12.972656 19.332031 11.234375 C 19.332031 11.164062 19.324219 11.09375 19.320312 11.027344 L 21.222656 9.542969 C 21.28125 9.730469 21.34375 9.914062 21.394531 10.097656 C 21.402344 10.121094 21.40625 10.144531 21.414062 10.167969 C 21.492188 10.472656 21.5625 10.78125 21.621094 11.097656 C 21.621094 11.097656 21.621094 11.101562 21.621094 11.101562 C 21.671875 11.371094 21.707031 11.636719 21.730469 11.902344 C 21.734375 11.949219 21.742188 11.992188 21.746094 12.039062 C 21.917969 14.105469 21.386719 16.136719 20.234375 17.722656 Z M 22.699219 11.757812 C 22.644531 11.769531 22.585938 11.773438 22.523438 11.757812 C 22.523438 11.742188 22.519531 11.726562 22.519531 11.710938 C 22.492188 11.460938 22.457031 11.210938 22.410156 10.960938 C 22.410156 10.960938 22.410156 10.957031 22.410156 10.957031 C 22.410156 10.953125 22.40625 10.945312 22.40625 10.941406 C 22.351562 10.640625 22.285156 10.351562 22.214844 10.066406 C 22.207031 10.03125 22.195312 9.996094 22.183594 9.960938 C 22.113281 9.6875 22.035156 9.425781 21.953125 9.175781 C 21.949219 9.167969 21.949219 9.160156 21.945312 9.148438 C 21.984375 9.121094 22.027344 9.105469 22.070312 9.09375 C 22.222656 9.058594 22.367188 9.121094 22.464844 9.179688 C 22.769531 9.367188 23.027344 9.777344 23.136719 10.246094 C 23.324219 11.03125 23.054688 11.671875 22.699219 11.757812 Z M 22.699219 11.757812"/>
    <path d="M17.78125 12.234375C17.78125 12.566406 17.511719 12.835938 17.179688 12.835938 16.847656 12.835938 16.578125 12.566406 16.578125 12.234375 16.578125 11.902344 16.847656 11.636719 17.179688 11.636719 17.511719 11.636719 17.78125 11.902344 17.78125 12.234375zM11.78125 11.835938C11.78125 12.167969 11.511719 12.433594 11.179688 12.433594 10.847656 12.433594 10.582031 12.167969 10.582031 11.835938 10.582031 11.503906 10.847656 11.234375 11.179688 11.234375 11.511719 11.234375 11.78125 11.503906 11.78125 11.835938zM11.78125 11.835938"/>
</svg>

<svg xmlns="http://www.w3.org/2000/svg" width="32" height="32" viewBox="0 0 24 24">
    <path d="M17.422 16.465l-7.598.8a.402.402 0 0 0 .043.801l.04-.003L11 17.945v1.29a.397.397 0 0 0 .398.402c.008 0 .016-.004.024-.004l2.61-.145h.003l2.168-.12a.398.398 0 0 0 .375-.4V17.36l.93-.097a.399.399 0 0 0 .355-.438.405.405 0 0 0-.441-.36zM11.8 17.867l1.808-.187v1.03l-1.808.102zm3.98.723l-1.37.078v-1.074l1.37-.145zm0 0"/>
    <path d="M23.918 10.063c-.16-.68-.547-1.266-1.031-1.563-.325-.2-.672-.266-1.004-.184a1.125 1.125 0 0 0-.219.079c-2.613-6.356-9.332-6.43-9.5-6.43h-.004c-.027 0-.824.004-1.973.254h-.007c-.36.082-.75.183-1.164.32-.012 0-.024-.004-.036-.004v.016c-2.628.87-6.085 3.031-7.078 8.406a.912.912 0 0 0-.015.102 1.068 1.068 0 0 0-.313-.051C.691 11.008 0 11.96 0 13.18c0 1.215.691 2.168 1.574 2.168.164 0 .32-.04.473-.106a8.885 8.885 0 0 0 1.383 2.95c1.297 1.788 3.863 3.91 8.726 3.843h.219c4.719 0 7.23-2.082 8.508-3.844 1.152-1.586 1.738-3.578 1.691-5.628.016 0 .028.003.043.003.09 0 .18-.007.27-.03.855-.204 1.312-1.29 1.031-2.473zM9.039 3.34c1.059.062 1.941 1.68 1.941 3.598h.801c0-1.731-.605-3.196-1.508-3.918 1.094.027 2.309.582 2.309 4.214h.797c0-.847 0-2.875-1.02-4.078 1.051.7 1.82 2.465 1.82 4.48h.801c0-1.952-.613-3.644-1.562-4.64 1.36.508 2.363 2.211 2.363 4.238h.797c0-1.55-.527-2.937-1.355-3.894.351.12.714.265 1.086.441 2.183 1.035 3.734 2.7 4.64 4.961l-1.777 1.387c-.356-1.203-1.274-2.082-2.379-2.14-.637-.032-1.254.206-1.75.675-.34.324-.605.738-.777 1.203a1.233 1.233 0 0 0-.625-.203 1.15 1.15 0 0 0-.625.184c-.47-1.246-1.555-2.145-2.848-2.215a3.08 3.08 0 0 0-2.281.863 3.577 3.577 0 0 0-.985 1.664l-3.43-1.672C4.794 5.43 7.123 4.004 9.04 3.34zm6.555 5.906c.316-.3.691-.46 1.078-.46.027 0 .05.003.078.003.98.05 1.781 1.149 1.781 2.445 0 1.293-.8 2.391-1.781 2.442-.414.023-.816-.137-1.156-.457-.492-.469-.774-1.192-.774-1.989 0-.793.282-1.52.774-1.984zm-3.13 1.988c0 1.496-1.027 2.727-2.339 2.797-.613.04-1.219-.195-1.691-.644-.559-.532-.883-1.317-.883-2.153 0-.84.324-1.625.883-2.156a2.275 2.275 0 0 1 1.691-.644c1.313.07 2.34 1.3 2.34 2.8zM1.872 14.43a.477.477 0 0 1-.297.117c-.367 0-.773-.563-.773-1.367 0-.809.406-1.371.773-1.371a.44.44 0 0 1 .203.054c-.02.215-.03.426-.039.64v.044c-.004.176-.004.351 0 .527.004.055.004.114.008.168a15.281 15.281 0 0 0 .043.598c.02.176.043.348.07.52l.012.07zm18.363 3.293c-1.726 2.379-4.43 3.558-8.074 3.511h-.008c-3.636.063-6.347-1.132-8.074-3.511-.824-1.137-1.332-2.5-1.492-3.946-.004-.03-.004-.062-.008-.09-.02-.23-.035-.46-.039-.695-.004-.097 0-.199 0-.297.004-.164.008-.328.02-.492a9.868 9.868 0 0 1 .129-1.102 12.55 12.55 0 0 1 .492-1.863l3.582 1.746c-.004.082-.012.164-.012.25 0 1.055.414 2.051 1.133 2.735.594.562 1.34.867 2.12.867.056 0 .11 0 .161-.004 1.738-.094 3.102-1.676 3.102-3.598 0-.156-.012-.308-.032-.46h.032c0-.079.058-.149.093-.184.086-.086.196-.133.262-.125.149 0 .399.187.399.324h.027a4.13 4.13 0 0 0-.027.445c0 1.012.37 1.95 1.023 2.567.465.437 1.039.68 1.629.68.039 0 .082-.004.121-.004 1.422-.079 2.539-1.504 2.539-3.243 0-.07-.008-.14-.012-.207l1.903-1.484c.058.187.12.371.172.555.007.023.011.047.02.07.077.305.148.613.206.93v.004c.05.27.086.535.11.8.003.047.011.09.015.137.172 2.066-.36 4.098-1.512 5.684zm2.465-5.965a.381.381 0 0 1-.176 0c0-.016-.003-.031-.003-.047-.028-.25-.063-.5-.11-.75v-.004l-.004-.016c-.054-.3-.12-.59-.191-.875-.008-.035-.02-.07-.031-.105-.07-.274-.149-.535-.23-.785-.005-.008-.005-.016-.009-.028a.394.394 0 0 1 .125-.054c.153-.035.297.027.395.086.305.187.562.597.672 1.066.187.785-.082 1.426-.438 1.512zm0 0"/>
    <path d="M17.781 12.234a.602.602 0 0 1-1.203 0c0-.332.27-.597.602-.597.332 0 .601.265.601.597zm0 0M11.781 11.836c0 .332-.27.598-.601.598a.595.595 0 0 1-.598-.598.598.598 0 1 1 1.2 0zm0 0"/>
</svg>
